icon-themes/sifr_svg/cmd/sc_expandpage.svg

<svg viewBox="0 0 16 16" xmlns="http://www.w3.org/2000/svg"><path d="m6 1v3h-4v11h8v-3h4v-11zm2 2h4v7h-4zm-4 3h2v6h2v1h-4z" fill="#555753"/></svg>

<svg xmlns="http://www.w3.org/2000/svg" viewBox="0 0 16 16">
  <path
     style="fill:#555753"
     d="M 6 1 L 6 4 L 2 4 L 2 15 L 10 15 L 10 12 L 14 12 L 14 1 L 6 1 z M 8 3 L 12 3 L 12 10 L 8 10 L 8 3 z M 4 6 L 6 6 L 6 12 L 8 12 L 8 13 L 4 13 L 4 6 z "
     />
</svg>
